X:1
T:Title
%%score { ( 1 3 ) | ( 2 4 ) }
L:1/8
Q:1/4=100
M:4/4
K:D
V:1 treble nm="Grand Piano"
V:3 treble 
V:2 bass 
V:4 bass 
V:1
 D>F F>[EG] [FA]2 F2 | G>B d>e d2 z2 | c>d e>c B2 A2 | [FB]>[FA] [FA]>[=F^G] [^FA]2 z2 | %4
w: E.~S.~Lorenz * * * * *||||
 D>F F>[EG] [FA]2 F2 | G>B d>e d2 z2 | c>c B>c d>A A>B | c2 B2 [CA]2 z2 | %8
w: ||||
 [Fd]>[Gc] [Ad]>[GB] [FA]>[EG] [DF]2 | [CG]>[CG] [CG]>[=CF] [^CG]2 z2 | c>B d>c B>A G2 | %11
w: |||
 [FB]>[FA] [FA]>[=F^G] [^FA]2 z2 | D>F F>[EG] [FA]2 F2 | G>B d>e d2 z2 | %14
w: |||
[M:35/32] [^Ge]>[Gd][Gc]>[GB]d>AA-(3:2:4A3/2-A/4=G3/4-G/8 | %15
w: |
[M:9/8] (4:3:4F2 F/[CE]/-[CE]- [CE] D2- D-D/4 z/4 z/ z |] %16
w: |
V:2
 [D,F,]>[D,A,D] [D,A,D]>[D,A,] [D,D]2 [D,A,D]2 | [G,B,D]>[G,DG] [G,B,G]>[G,B,G] [G,B,G]2 z2 | %2
 [A,G]>[A,F] [A,CG]>[A,EG] [A,DG]2 [A,CG]2 | [D,D]>[D,D] [D,D]>[D,D] [D,D]2 z2 | %4
 [D,F,]>[D,A,D] [D,A,D]>[D,A,] [D,D]2 [D,A,D]2 | [G,B,D]>[G,DG] [G,B,G]>[G,B,G] [G,B,G]2 z2 | %6
 [A,E]>[A,E] [G,B,E]>[G,A,E] [F,A,D]>[F,A,D] [=F,A,D]>[F,A,^D] | [E,A,E]2 [E,^G,D]2 [A,,A,]2 z2 | %8
 [D,A,]>[E,A,] [F,D]>[G,D] [D,D]>[D,A,] [D,A,]2 | [A,,A,]>[A,,E,] [A,,E,]>[A,,^D,] [A,,E,]2 z2 | %10
 [A,E]>[A,G] [A,F]>[A,E] [A,CG]>[A,CF][K:bass] [A,CE]2 | [D,D]>[D,D] [D,D]>[D,D] [D,D]2 z2 | %12
 [D,F,]>[D,A,D] [D,A,D]>[D,A,] [D,D]2 [D,A,D]2 | [G,B,D]>[G,DG] [G,B,G]>[G,B,G] [G,B,G]2 z2 | %14
[M:35/32][K:bass] [E,B,]>[E,B,][E,E]>[E,D][A,DF]>[F,D][F,=CD]-(3:2:4[F,CD]3/2-[F,CD]/4[G,B,E]3/4-[G,B,E]/8 | %15
[M:9/8] (4:3:4[A,D]2 [A,D]/[A,,G,]/-[A,,G,]- [A,,G,] [D,F,]2- [D,F,]-[D,F,]/4 z/4 z/ z |] %16
V:3
 x8 | x8 | x8 | x8 | x8 | x8 | x8 | x8 | x8 | x8 | x8 | x8 | x8 | x8 |[M:35/32] x35/4 | %15
[M:9/8] z3 z/ [CE]/-[CE]/4 z/4 z/ z z3 |] %16
V:4
 x8 | x8 | x8 | x8 | x8 | x8 | x8 | x8 | x8 | x8 | x6[K:bass] x2 | x8 | x8 | x8 | %14
[M:35/32][K:bass] x35/4 |[M:9/8] z3 z/ [A,,G,]/-[A,,G,]/4 z/4 z/ z z3 |] %16

